brandFactory_export/1.Light/Noticias_1Light.svg

<?xml version="1.0" encoding="UTF-8"?>
<svg width="24px" height="24px" viewBox="0 0 24 24" version="1.1" xmlns="http://www.w3.org/2000/svg" xmlns:xlink="http://www.w3.org/1999/xlink">
    <title>1.Light/Noticias_1Light</title>
    <g id="Symbols" stroke="none" stroke-width="1" fill="none" fill-rule="evenodd">
        <g id="1.Light/Noticias_1Light" fill="#5CB615" fill-rule="nonzero">
            <path d="M17.3546218,4.18487395 C17.5764706,4.34957983 17.707563,4.61848739 17.707563,4.90084034 L17.707563,18.8907563 C17.707563,19.1764706 17.5731092,19.4453782 17.3546218,19.610084 C17.210084,19.7176471 17.0420168,19.7714286 16.8773109,19.7714286 C16.8,19.7714286 16.7226891,19.7613445 16.6487395,19.7378151 L9.40038518,17.5446365 C9.39525775,17.5757919 9.38785302,17.6066568 9.37815126,17.6369748 L9.08907563,18.5546218 C9.03529412,18.7260504 8.91764706,18.8672269 8.75966387,18.9478992 C8.66218487,19.0016807 8.55462185,19.0285714 8.44705882,19.0285714 C8.37983193,19.0285714 8.31260504,19.0184874 8.24537815,18.9983193 L5.45546219,18.1243697 C5.10252101,18.0134454 4.90420168,17.6369748 5.01512605,17.2806723 L5.30420168,16.3630252 L5.324,16.3121152 L0.665,14.9031152 L0.665546219,15.5058824 C0.668907563,15.687395 0.517647059,15.8386555 0.33277311,15.8386555 C0.14789916,15.8386555 2.60218513e-10,15.6907563 2.60218513e-10,15.5058824 L2.60218513e-10,8.29579832 C2.60218513e-10,8.11092437 0.14789916,7.96302521 0.33277311,7.96302521 C0.517647059,7.96302521 0.665546219,8.11092437 0.665546219,8.29579832 L0.665,8.89411524 L16.6487395,4.0605042 C16.8907563,3.98655462 17.1462185,4.03361345 17.3546218,4.18487395 Z M16.8773109,4.69243697 C16.8638655,4.69243697 16.8537815,4.69579832 16.8403361,4.69915966 L0.83697479,9.5394958 C0.76302521,9.56302521 0.709243698,9.64705882 0.709243698,9.74453782 L0.709243698,14.0571429 C0.709243698,14.1546218 0.76302521,14.2386555 0.83697479,14.2621849 L16.8403361,19.102521 C16.8806723,19.1159664 16.9176471,19.1058824 16.9546218,19.0789916 C17.0084034,19.0386555 17.0386555,18.9714286 17.0386555,18.897479 L17.0386555,4.90420168 C17.0386555,4.8302521 17.0084034,4.75966387 16.9546218,4.72268908 C16.9277311,4.70252101 16.9042017,4.69243697 16.8773109,4.69243697 Z M20.2184874,15.8621849 L22.5747899,18.2184874 C22.7058824,18.3495798 22.7058824,18.5613445 22.5747899,18.692437 C22.5109244,18.7563025 22.4235294,18.789916 22.3394958,18.789916 C22.2521008,18.789916 22.1680672,18.7563025 22.1008403,18.692437 L19.7445378,16.3361345 C19.6134454,16.205042 19.6134454,15.9932773 19.7445378,15.8621849 C19.8756303,15.7310924 20.087395,15.7310924 20.2184874,15.8621849 Z M5.94621849,16.5613445 L5.65714286,17.4789916 L5.65714286,17.4789916 L8.44705882,18.3529412 L8.73613445,17.4352941 L5.94621849,16.5613445 Z M23.2168067,11.2403361 C23.4016807,11.2403361 23.5529412,11.3915966 23.5529412,11.5764706 C23.5529412,11.7613445 23.4016807,11.912605 23.2168067,11.912605 L19.8823529,11.912605 C19.697479,11.912605 19.5462185,11.7613445 19.5462185,11.5764706 C19.5462185,11.3915966 19.697479,11.2403361 19.8823529,11.2403361 L23.2168067,11.2403361 Z M22.5848739,4.39327731 C22.7159664,4.52436975 22.7159664,4.73613445 22.5848739,4.86722689 L20.2285714,7.22352941 C20.1647059,7.28739496 20.0773109,7.3210084 19.9932773,7.3210084 C19.9058824,7.3210084 19.8218487,7.28739496 19.7546218,7.22352941 C19.6235294,7.09243697 19.6235294,6.88067227 19.7546218,6.74957983 L22.1109244,4.39327731 C22.2420168,4.26218487 22.4537815,4.26218487 22.5848739,4.39327731 Z" id="Noticias_1Light"></path>
        </g>
    </g>
</svg>

<svg width="24" height="24" viewBox="0 0 24 24" xmlns="http://www.w3.org/2000/svg"><path d="M17.355 4.185a.893.893 0 01.353.716v13.99a.905.905 0 01-.353.72.8.8 0 01-.706.127L9.4 17.545a.648.648 0 01-.022.092l-.289.918a.66.66 0 01-.33.393.647.647 0 01-.514.05l-2.79-.874a.674.674 0 01-.44-.843l.29-.918.019-.05-4.659-1.41v.603a.331.331 0 01-.332.333.331.331 0 01-.333-.333v-7.21c0-.185.148-.333.333-.333.185 0 .333.148.333.333l-.001.598 15.984-4.833a.795.795 0 01.706.124zm-.478.507c-.013 0-.023.004-.037.007L.837 9.54c-.074.024-.128.108-.128.206v4.312c0 .098.054.182.128.205l16.003 4.84c.04.014.078.004.115-.023a.224.224 0 00.084-.182V4.904a.219.219 0 00-.084-.181.125.125 0 00-.078-.03zm3.341 11.17l2.357 2.356a.335.335 0 11-.474.474l-2.356-2.356a.335.335 0 11.473-.474zm-14.272.7l-.289.917 2.79.874.29-.918-2.79-.874zm17.27-5.322c.186 0 .337.152.337.336a.337.337 0 01-.336.337h-3.335a.337.337 0 01-.336-.337c0-.184.151-.336.336-.336h3.335zm-.631-6.847a.335.335 0 010 .474l-2.356 2.357a.336.336 0 01-.474 0 .335.335 0 010-.474l2.356-2.357a.335.335 0 01.474 0z" fill="#5CB615" fill-rule="nonzero"/></svg>
